resources/svg/combine-cells.svg

<svg xmlns="http://www.w3.org/2000/svg" width="24" height="24" viewBox="0 0 24 24">
  <path fill="currentColor" d="M2,19 C2,20.6568542 3.34314575,22 5,22 L19,22 C20.6568542,22 22,20.6568542 22,19 L22,5 C22,3.34314575 20.6568542,2 19,2 L5,2 C3.34314575,2 2,3.34314575 2,5 L2,19 Z M-1.16403344e-15,19 L-3.0678068e-16,5 C-6.44957556e-16,2.23857625 2.23857625,0 5,0 L19,0 C21.7614237,0 24,2.23857625 24,5 L24,19 C24,21.7614237 21.7614237,24 19,24 L5,24 C2.23857625,24 9.50500275e-16,21.7614237 -1.16403344e-15,19 Z M12,10 C12.5522847,10 13,10.4477153 13,11 L13,13 C13,13.5522847 12.5522847,14 12,14 C11.4477153,14 11,13.5522847 11,13 L11,11 C11,10.4477153 11.4477153,10 12,10 Z M12,16 C12.5522847,16 13,16.4477153 13,17 L13,20 C13,20.5522847 12.5522847,21 12,21 C11.4477153,21 11,20.5522847 11,20 L11,17 C11,16.4477153 11.4477153,16 12,16 Z M12,3 C12.5522847,3 13,3.44771525 13,4 L13,7 C13,7.55228475 12.5522847,8 12,8 C11.4477153,8 11,7.55228475 11,7 L11,4 C11,3.44771525 11.4477153,3 12,3 Z"/>
</svg>

<svg xmlns="http://www.w3.org/2000/svg" viewBox="0 0 24 24"><path fill="currentColor" d="M2 19a3 3 0 0 0 3 3h14a3 3 0 0 0 3-3V5a3 3 0 0 0-3-3H5a3 3 0 0 0-3 3v14Zm-2 0V5a5 5 0 0 1 5-5h14a5 5 0 0 1 5 5v14a5 5 0 0 1-5 5H5a5 5 0 0 1-5-5Zm12-9a1 1 0 0 1 1 1v2a1 1 0 0 1-2 0v-2a1 1 0 0 1 1-1Zm0 6a1 1 0 0 1 1 1v3a1 1 0 0 1-2 0v-3a1 1 0 0 1 1-1Zm0-13a1 1 0 0 1 1 1v3a1 1 0 0 1-2 0V4a1 1 0 0 1 1-1Z"/></svg>
